X: 469
T: Mai Cai
%%abc-version 2.0
%%abcx-abcm2ps-target-version 5.9.1 (29 Sep 2008)
%%abc-creator hum2abc beta
%%abcx-conversion-date 2013/10/02 07:52:30
%%abc-edited-by Helmut Schaffrath
%%humdrum-veritas 3033499586
%%humdrum-veritas-data 615185928
%%continueall 1
%%barnumbers 0
L: 1/8
M: 2/4
K: Eb
c c c f [I:setbarnb 1]| 
c B c/ B/ G/ B/ | 
c4 | 
F G B c | 
B GF2 | 
F F B c | 
B FB2 | 
E CB,2 | 
c B F F | 
B, C E F | 
E CB,2 |]  



